resources/svg/subscript-2.svg

<svg fill="currentColor" viewBox="0 0 24 24" xmlns="http://www.w3.org/2000/svg"><path d="M11 6V19H9V6H3V4H17V6H11ZM19.5507 16.5803C19.7042 16.4345 19.8 16.2284 19.8 16C19.8 15.5582 19.4418 15.2 19 15.2C18.5582 15.2 18.2 15.5582 18.2 16C18.2 16.0762 18.2107 16.15 18.2306 16.2198L17.0765 16.5496C17.0267 16.375 17 16.1906 17 16C17 14.8954 17.8954 14 19 14C20.1046 14 21 14.8954 21 16C21 16.5727 20.7593 17.0892 20.3735 17.4538L18.7441 19H21V20H17V19L19.5507 16.5803V16.5803Z"/></svg>

<svg xmlns="http://www.w3.org/2000/svg" viewBox="0 0 24 24" fill="currentColor">
    <g>
        <path fill="none" d="M0 0h24v24H0z"/>
        <path d="M11 6v13H9V6H3V4h14v2h-6zm8.55 10.58a.8.8 0 1 0-1.32-.36l-1.154.33A2.001 2.001 0 0 1 19 14a2 2 0 0 1 1.373 3.454L18.744 19H21v1h-4v-1l2.55-2.42z"/>
    </g>
</svg>
